img/bg/int.svg

<svg width="1890" height="194" viewBox="0 0 1890 194" fill="none" xmlns="http://www.w3.org/2000/svg">
<path fill-rule="evenodd" clip-rule="evenodd" d="M-867.044 5.09682V103.26C-867.044 103.621 -866.957 103.837 -866.784 103.924C-866.61 104.011 -866.423 103.88 -866.249 103.519L-799.674 5.09682H-760.764V193.103H-803.707V89.3085C-803.707 88.9475 -803.794 88.7318 -803.968 88.6449C-804.155 88.558 -804.329 88.6884 -804.517 89.0495L-871.886 193.103H-910V5.09682H-867.044ZM804.824 79.6616H940.647V118.28H804.824V79.6616ZM-582.81 5.09682V193.103H-625.751V144.823C-625.751 143.033 -626.648 142.137 -628.441 142.137H-685.344C-686.95 142.137 -687.758 143.033 -687.758 144.823V193.103H-730.701V5.09682H-687.758V96.5584C-687.758 98.3354 -686.95 99.2297 -685.344 99.2297H-628.441C-626.648 99.2297 -625.751 98.3354 -625.751 96.5584V5.09682H-582.81ZM-383.122 5.09682V48.0042H-442.708C-443.951 48.0042 -444.587 48.6395 -444.587 49.8815V193.103H-487.53V49.8815C-487.53 48.6395 -488.152 48.0042 -489.408 48.0042H-549.262V5.09682H-383.122ZM-318.707 48.5525C-320.145 48.5525 -320.848 49.2613 -320.848 50.6905V86.3631C-320.848 87.9662 -320.145 88.7736 -318.707 88.7736H-231.459V131.422H-318.707C-320.145 131.422 -320.848 132.216 -320.848 133.834V147.77C-320.848 149.2 -320.145 149.922 -318.707 149.922H-210.818V192.829H-363.786V5.09682H-210.818V48.5525H-318.707ZM6.33105 192.829H-39.3001L-85.4663 64.642C-85.8176 63.3849 -86.6707 62.7647 -88.0088 62.7647C-89.3637 62.7647 -90.2167 63.3849 -90.5513 64.642L-136.718 192.829H-182.349L-114.722 4.8377H-61.2959L6.33105 192.829ZM219.449 192.829H173.818L127.651 64.642C127.3 63.3849 126.447 62.7647 125.109 62.7647C123.771 62.7647 122.918 63.3849 122.55 64.642L76.3835 192.829H30.7523L98.396 4.8377H151.805L219.449 192.829ZM288.966 48.5525C287.527 48.5525 286.825 49.2613 286.825 50.6905V86.3631C286.825 87.9662 287.527 88.7736 288.966 88.7736H376.18V131.422H288.966C287.527 131.422 286.825 132.216 286.825 133.834V147.77C286.825 149.2 287.527 149.922 288.966 149.922H396.855V192.829H243.87V5.09682H396.855V48.5525H288.966ZM503.689 98.9706L585.283 193.103H528.646L473.899 129.804C472.996 128.909 472.009 128.692 470.938 129.14C469.868 129.588 469.332 130.439 469.332 131.681V193.103H425.324V5.09682H469.332V66.5192C469.332 67.7612 469.868 68.5703 470.938 68.9314C472.009 69.2924 472.996 69.0183 473.899 68.1223L528.646 5.09682H585.283L503.689 98.9706ZM782.828 5.09682V48.0042H723.23C721.976 48.0042 721.357 48.6395 721.357 49.8815V193.103H678.419V49.8815C678.419 48.6395 677.8 48.0042 676.545 48.0042H616.68V5.09682H782.828ZM966.942 5.09682H1124.22V192.569H1081.02V48.0042H1009.88V192.569H966.942V5.09682ZM1246.63 5.63174C1257.91 5.63174 1268.49 7.78312 1278.43 12.0725C1288.35 16.3619 1297.05 22.1826 1304.47 29.5043C1311.88 36.8411 1317.76 45.4633 1322.04 55.3845C1326.34 65.3056 1328.49 75.9071 1328.49 87.1705C1328.49 97.1803 1326.5 107.014 1322.57 116.661C1318.64 126.323 1313.19 134.989 1306.2 142.687C1298.34 151.266 1289.3 157.794 1279.1 162.255C1268.9 166.732 1258.07 168.957 1246.63 168.957H1198.84V193.103H1156.17V5.63174H1246.63ZM1246.35 126.049C1251.73 126.049 1256.77 125.066 1261.52 123.104C1266.27 121.14 1270.42 118.41 1274 114.93C1277.58 111.434 1280.4 107.319 1282.46 102.581C1284.5 97.8439 1285.56 92.8039 1285.56 87.4313C1285.56 82.0737 1284.5 77.0187 1282.46 72.2813C1280.4 67.5439 1277.63 63.3849 1274.13 59.8043C1270.65 56.237 1266.52 53.4203 1261.79 51.3692C1257.05 49.3047 1251.99 48.2784 1246.63 48.2784H1201.8C1199.83 48.2784 1198.84 49.2613 1198.84 51.2255V123.378C1198.84 125.153 1199.83 126.049 1201.8 126.049H1246.35ZM1517.44 193.103H1471.81L1464.84 174.055C1464.47 172.813 1463.68 172.176 1462.43 172.176H1381.37C1380.3 172.176 1379.48 172.813 1378.94 174.055L1372.25 193.103H1326.6L1394.25 5.09682H1449.8L1517.44 193.103ZM1396.39 125.789C1396.04 126.685 1396.12 127.479 1396.66 128.201C1397.21 128.909 1397.91 129.271 1398.81 129.271H1445.25C1447.56 129.271 1448.38 128.114 1447.66 125.789L1424.57 61.4207C1424.04 60.1654 1423.15 59.5435 1421.9 59.5435C1420.63 59.5435 1419.84 60.1654 1419.47 61.4207L1396.39 125.789ZM1680.63 98.1615C1685.28 103.347 1688.83 109.152 1691.23 115.593C1693.66 122.034 1694.85 128.736 1694.85 135.711C1694.85 143.568 1693.38 150.947 1690.43 157.835C1687.49 164.711 1683.41 170.747 1678.22 175.932C1673.04 181.116 1666.98 185.19 1660.11 188.135C1653.21 191.082 1645.82 192.569 1637.96 192.569H1537.31V5.37096H1637.96C1646.02 5.37096 1653.53 6.84534 1660.49 9.79076C1667.48 12.7378 1673.55 16.9838 1678.76 22.5286C1683.41 27.714 1687.04 33.7068 1689.63 40.4953C1692.22 47.2971 1693.53 54.5319 1693.53 62.2298C1693.53 75.9923 1689.21 87.9662 1680.63 98.1615ZM1579.98 75.098C1579.98 76.7011 1580.87 77.5102 1582.66 77.5102H1636.34C1640.1 77.5102 1643.41 76.0358 1646.27 73.0904C1649.13 70.1299 1650.57 66.6061 1650.57 62.4906C1650.75 58.3733 1649.42 54.9365 1646.54 52.1632C1643.68 49.3917 1640.28 48.0042 1636.34 48.0042H1582.66C1580.87 48.0042 1579.98 48.8133 1579.98 50.4314V75.098ZM1579.98 147.51C1579.98 149.113 1580.87 149.922 1582.66 149.922H1637.69C1641.62 149.922 1645.03 148.536 1647.89 145.763C1650.75 142.99 1652.18 139.553 1652.18 135.437C1651.99 131.32 1650.52 127.796 1647.74 124.851C1644.98 121.89 1641.72 120.418 1637.96 120.418H1582.66C1580.87 120.418 1579.98 121.225 1579.98 122.828V147.51ZM1879.51 32.9846C1884.7 42.2856 1887.76 52.2502 1888.65 62.8935C1889.55 73.5384 1890 84.76 1890 96.5584V114.784H1889.72C1889.36 122.828 1888.51 130.613 1887.17 138.124C1885.84 145.632 1883.28 152.782 1879.51 159.569C1872.89 171.195 1863.42 179.6 1851.08 184.785C1839.99 189.969 1825.3 192.569 1807.05 192.569C1789.17 192.569 1774.48 189.969 1763.03 184.785C1750.87 179.428 1741.47 171.021 1734.84 159.569C1729.66 150.283 1726.63 140.26 1725.73 129.545C1724.82 118.815 1724.39 107.636 1724.39 96.0101V77.7843H1724.65C1725.01 69.7404 1725.81 61.9556 1727.06 54.445C1728.32 46.936 1730.91 39.7865 1734.84 32.9846C1741.47 21.5473 1750.87 13.1407 1763.03 7.78313C1774.48 2.5994 1789.17 0 1807.05 0C1825.3 0 1839.99 2.5994 1851.08 7.78313C1863.42 12.9685 1872.89 21.3735 1879.51 32.9846ZM1846.51 96.5584C1846.51 87.9662 1846.33 79.8789 1845.98 72.2813C1845.61 64.6854 1844.17 58.7344 1841.68 54.445C1841.31 53.7379 1840.66 52.7985 1839.67 51.63C1838.68 50.4749 1836.93 49.3048 1834.43 48.1497C1831.92 46.9795 1828.53 45.9531 1824.23 45.0588C1819.93 44.1628 1814.21 43.7148 1807.05 43.7148C1800.08 43.7148 1794.39 44.1628 1790.01 45.0588C1785.62 45.9531 1782.23 46.9795 1779.82 48.1497C1777.39 49.3048 1775.69 50.4749 1774.7 51.63C1773.73 52.7985 1773.05 53.7379 1772.69 54.445C1770.19 58.7344 1768.75 64.555 1768.41 71.8768C1768.04 79.2136 1767.86 87.0702 1767.86 95.4752V96.0101C1767.86 104.602 1768.04 112.69 1768.41 120.287C1768.75 127.883 1770.19 133.834 1772.69 138.124C1773.05 138.657 1773.73 139.553 1774.7 140.81C1775.69 142.052 1777.39 143.264 1779.82 144.419C1782.23 145.589 1785.62 146.615 1790.01 147.51C1794.39 148.406 1800.08 148.854 1807.05 148.854C1814.21 148.854 1819.93 148.406 1824.23 147.51C1828.53 146.615 1831.92 145.589 1834.43 144.419C1836.93 143.264 1838.68 142.052 1839.67 140.81C1840.66 139.553 1841.31 138.657 1841.68 138.124C1844.17 133.834 1845.61 128.014 1845.98 120.692C1846.33 113.355 1846.51 105.396 1846.51 96.8192V96.5584Z" fill="white" fill-opacity="0.03"/>
</svg>

<svg xmlns="http://www.w3.org/2000/svg" width="1890" height="194" fill="none"><path fill="#fff" fill-opacity=".03" fill-rule="evenodd" d="M-867.044 5.097v98.163c0 .361.087.577.26.664.174.087.361-.044.535-.405l66.575-98.422h38.91v188.006h-42.943V89.308c0-.36-.087-.576-.261-.663-.187-.087-.361.043-.549.404l-67.369 104.054H-910V5.097h42.956ZM804.824 79.662h135.823v38.618H804.824V79.662ZM-582.81 5.097v188.006h-42.941v-48.28c0-1.79-.897-2.686-2.69-2.686h-56.903c-1.606 0-2.414.896-2.414 2.686v48.28h-42.943V5.097h42.943v91.461c0 1.777.808 2.672 2.414 2.672h56.903c1.793 0 2.69-.895 2.69-2.672V5.097h42.941Zm199.688 0v42.907h-59.586c-1.243 0-1.879.636-1.879 1.878v143.221h-42.943V49.882c0-1.242-.622-1.878-1.878-1.878h-59.854V5.097h166.14Zm64.415 43.456c-1.438 0-2.141.708-2.141 2.138v35.672c0 1.603.703 2.41 2.141 2.41h87.248v42.649h-87.248c-1.438 0-2.141.794-2.141 2.412v13.936c0 1.43.703 2.152 2.141 2.152h107.889v42.907h-152.968V5.097h152.968v43.456h-107.889ZM6.331 192.829H-39.3L-85.466 64.642c-.352-1.257-1.205-1.877-2.543-1.877-1.355 0-2.208.62-2.542 1.877l-46.167 128.187h-45.631l67.627-187.991h53.426L6.331 192.829Zm213.118 0h-45.631L127.651 64.642c-.351-1.257-1.204-1.877-2.542-1.877-1.338 0-2.191.62-2.559 1.877L76.384 192.829H30.752L98.396 4.838h53.409l67.644 187.991Zm69.517-144.276c-1.439 0-2.141.708-2.141 2.138v35.672c0 1.603.702 2.41 2.141 2.41h87.214v42.649h-87.214c-1.439 0-2.141.794-2.141 2.412v13.936c0 1.43.702 2.152 2.141 2.152h107.889v42.907H243.87V5.097h152.985v43.456H288.966ZM503.689 98.97l81.594 94.132h-56.637l-54.747-63.299c-.903-.895-1.89-1.112-2.961-.664-1.07.448-1.606 1.299-1.606 2.541v61.422h-44.008V5.097h44.008v61.422c0 1.242.536 2.051 1.606 2.412 1.071.361 2.058.087 2.961-.809l54.747-63.025h56.637L503.689 98.97ZM782.828 5.097v42.907H723.23c-1.254 0-1.873.636-1.873 1.878v143.221h-42.938V49.882c0-1.242-.619-1.878-1.874-1.878H616.68V5.097h166.148Zm184.114 0h157.278v187.472h-43.2V48.004h-71.14V192.57h-42.938V5.097Zm279.688.535c11.28 0 21.86 2.151 31.8 6.44 9.92 4.29 18.62 10.11 26.04 17.432 7.41 7.337 13.29 15.96 17.57 25.88 4.3 9.922 6.45 20.523 6.45 31.787 0 10.01-1.99 19.843-5.92 29.49-3.93 9.662-9.38 18.328-16.37 26.026-7.86 8.579-16.9 15.107-27.1 19.568-10.2 4.477-21.03 6.702-32.47 6.702h-47.79v24.146h-42.67V5.632h90.46Zm-.28 120.417c5.38 0 10.42-.983 15.17-2.945 4.75-1.964 8.9-4.694 12.48-8.174 3.58-3.496 6.4-7.611 8.46-12.349 2.04-4.737 3.1-9.777 3.1-15.15 0-5.357-1.06-10.412-3.1-15.15-2.06-4.737-4.83-8.896-8.33-12.477-3.48-3.567-7.61-6.384-12.34-8.435-4.74-2.064-9.8-3.09-15.16-3.09h-44.83c-1.97 0-2.96.982-2.96 2.946v72.153c0 1.775.99 2.671 2.96 2.671h44.55Zm271.09 67.054h-45.63l-6.97-19.048c-.37-1.242-1.16-1.879-2.41-1.879h-81.06c-1.07 0-1.89.637-2.43 1.879l-6.69 19.048h-45.65l67.65-188.006h55.55l67.64 188.006Zm-121.05-67.314c-.35.896-.27 1.69.27 2.412.55.708 1.25 1.07 2.15 1.07h46.44c2.31 0 3.13-1.157 2.41-3.482l-23.09-64.368c-.53-1.256-1.42-1.877-2.67-1.877-1.27 0-2.06.621-2.43 1.877l-23.08 64.368Zm284.24-27.627c4.65 5.185 8.2 10.99 10.6 17.431 2.43 6.441 3.62 13.143 3.62 20.118 0 7.857-1.47 15.236-4.42 22.124-2.94 6.876-7.02 12.912-12.21 18.097-5.18 5.184-11.24 9.258-18.11 12.203-6.9 2.947-14.29 4.434-22.15 4.434h-100.65V5.371h100.65c8.06 0 15.57 1.474 22.53 4.42 6.99 2.947 13.06 7.193 18.27 12.738 4.65 5.185 8.28 11.178 10.87 17.966 2.59 6.802 3.9 14.037 3.9 21.735 0 13.762-4.32 25.736-12.9 35.932Zm-100.65-23.064c0 1.603.89 2.412 2.68 2.412h53.68c3.76 0 7.07-1.474 9.93-4.42 2.86-2.96 4.3-6.484 4.3-10.6.18-4.117-1.15-7.553-4.03-10.327-2.86-2.771-6.26-4.159-10.2-4.159h-53.68c-1.79 0-2.68.81-2.68 2.427v24.667Zm0 72.412c0 1.603.89 2.412 2.68 2.412h55.03c3.93 0 7.34-1.386 10.2-4.159 2.86-2.773 4.29-6.21 4.29-10.326-.19-4.117-1.66-7.641-4.44-10.586-2.76-2.961-6.02-4.433-9.78-4.433h-55.3c-1.79 0-2.68.807-2.68 2.41v24.682Zm299.53-114.525c5.19 9.3 8.25 19.265 9.14 29.909.9 10.644 1.35 21.866 1.35 33.664v18.226h-.28c-.36 8.044-1.21 15.829-2.55 23.34-1.33 7.508-3.89 14.658-7.66 21.445-6.62 11.626-16.09 20.031-28.43 25.216-11.09 5.184-25.78 7.784-44.03 7.784-17.88 0-32.57-2.6-44.02-7.784-12.16-5.357-21.56-13.764-28.19-25.216-5.18-9.286-8.21-19.309-9.11-30.024-.91-10.73-1.34-21.909-1.34-33.535V77.784h.26c.36-8.044 1.16-15.828 2.41-23.339 1.26-7.509 3.85-14.659 7.78-21.46 6.63-11.438 16.03-19.844 28.19-25.202C1774.48 2.6 1789.17 0 1807.05 0c18.25 0 32.94 2.6 44.03 7.783 12.34 5.186 21.81 13.59 28.43 25.202Zm-33 63.573c0-8.592-.18-16.68-.53-24.277-.37-7.596-1.81-13.547-4.3-17.836-.37-.707-1.02-1.647-2.01-2.815-.99-1.155-2.74-2.325-5.24-3.48-2.51-1.17-5.9-2.197-10.2-3.091-4.3-.896-10.02-1.344-17.18-1.344-6.97 0-12.66.448-17.04 1.344-4.39.894-7.78 1.92-10.19 3.09-2.43 1.156-4.13 2.326-5.12 3.481-.97 1.168-1.65 2.108-2.01 2.815-2.5 4.29-3.94 10.11-4.28 17.432-.37 7.337-.55 15.193-.55 23.598v.535c0 8.592.18 16.68.55 24.277.34 7.596 1.78 13.547 4.28 17.837.36.533 1.04 1.429 2.01 2.686.99 1.242 2.69 2.454 5.12 3.609 2.41 1.17 5.8 2.196 10.19 3.091 4.38.896 10.07 1.344 17.04 1.344 7.16 0 12.88-.448 17.18-1.344 4.3-.895 7.69-1.921 10.2-3.091 2.5-1.155 4.25-2.367 5.24-3.609a57.213 57.213 0 0 0 2.01-2.686c2.49-4.29 3.93-10.11 4.3-17.432.35-7.337.53-15.296.53-23.873v-.26Z" clip-rule="evenodd"/></svg>
